X:635
T: Mickey Murphy's
T: Port Mhici U\'i Mhurch\'u
S: B.Breathnach:"Ceol Rince na hEireann" IV/54
Z: B.Black
L: 1/8
M: 12/8
Q: 360
R: jig
K: D
d2f ecA BdB AFD|d2f ecA B2c d3|
d2f ecA BdB AFD|GAB Adc d3 d2 z :|
dfa afd ced cBA|dfa afd f3 a3|
dfa afd ced cBA|GAB Adc d3 d2 z :|
